img/mastodon.svg

<svg xmlns="http://www.w3.org/2000/svg" width="21" height="21" fill="#032c36" viewBox="0 0 21 21"><path d="M10.5,21 C4.70101013,21 0,16.2989899 0,10.5 C0,4.70101013 4.70101013,0 10.5,0 C16.2989899,0 21,4.70101013 21,10.5 C21,16.2989899 16.2989899,21 10.5,21 Z M16.7232544,12.3549777 C17.0243549,10.8062996 16.999501,8.57567745 16.999501,8.57567745 C16.999501,5.55235741 15.0186947,4.66617563 15.0186947,4.66617563 C14.0199569,4.20746655 12.3049601,4.01456696 10.5232107,4 L10.4794347,4 C8.69768521,4.01456696 6.98381475,4.20746655 5.98500183,4.66617563 C5.98500183,4.66617563 4.0041205,5.55235741 4.0041205,8.57567745 C4.0041205,9.2679835 3.99060476,10.0957473 4.01253029,10.9735943 C4.08446404,13.9302368 4.5545864,16.8441544 7.28821917,17.5676968 C8.54863667,17.9013103 9.63079663,17.9711416 10.5023364,17.9232358 C12.0828515,17.8356088 12.9700846,17.3591791 12.9700846,17.3591791 L12.9179739,16.2124439 C12.9179739,16.2124439 11.7885088,16.5685836 10.520057,16.525183 C9.26331877,16.4820829 7.93659907,16.3896502 7.73333742,14.8466788 C7.71456556,14.711146 7.70517963,14.5662272 7.70517963,14.414025 C7.70517963,14.414025 8.93886601,14.7155761 10.5023364,14.7872095 C11.4583494,14.8310606 12.3548933,14.7311943 13.2654785,14.6225428 C15.0117116,14.414025 16.5321569,13.3380973 16.7232544,12.3549777 Z M14.6630056,12.4709577 L13.0819702,12.4709577 L13.0819702,8.91782081 C13.0819702,8.16882375 12.8975501,7.78865613 12.2671912,7.78865613 C11.5702297,7.78865613 11.220923,8.23963119 11.220923,9.13136944 L11.220923,11.0762088 L9.77916938,11.0762088 L9.77916938,9.13136944 C9.77916938,8.23963119 9.42978759,7.78865613 8.73282612,7.78865613 C8.10246719,7.78865613 7.91271973,8.16882375 7.91271973,8.91782081 L7.91271973,12.4709577 L6.33701168,12.4709577 L6.33701168,8.81022053 C6.33701168,8.06204944 6.52750847,7.46750721 6.91015399,7.02764508 C7.3047384,6.58778295 7.82149005,6.36229542 8.46296192,6.36229542 C9.20512602,6.36229542 9.76715539,6.64755254 10.138763,7.21814188 L10.5000086,7.82372195 L10.8613293,7.21814188 C11.2328619,6.64755254 11.7948913,6.36229542 12.5371305,6.36229542 C13.1785272,6.36229542 13.6952789,6.58778295 14.0899384,7.02764508 C14.4725088,7.46750721 14.6630056,8.06204944 14.6630056,8.81022053 L14.6630056,12.4709577 Z"></path></svg>

<svg xmlns="http://www.w3.org/2000/svg" width="21" height="21" fill="#032c36"><path d="M10.5 21C4.701 21 0 16.299 0 10.5S4.701 0 10.5 0 21 4.701 21 10.5 16.299 21 10.5 21m6.223-8.645c.301-1.549.277-3.78.277-3.78 0-3.023-1.981-3.909-1.981-3.909-.999-.459-2.714-.651-4.496-.666h-.044c-1.781.015-3.495.207-4.494.666 0 0-1.98.886-1.98 3.91 0 .692-.014 1.52.008 2.398.071 2.956.542 5.87 3.275 6.594 1.26.333 2.343.403 3.214.355 1.58-.087 2.468-.564 2.468-.564l-.052-1.147s-1.13.357-2.398.313c-1.257-.043-2.583-.135-2.787-1.678a3 3 0 0 1-.028-.433s1.234.302 2.797.373c.956.044 1.853-.056 2.763-.164 1.747-.209 3.267-1.285 3.458-2.268m-2.06.116h-1.581V8.918c0-.75-.184-1.13-.815-1.13-.697 0-1.046.452-1.046 1.343v1.945H9.779V9.131c0-.891-.35-1.342-1.046-1.342-.63 0-.82.38-.82 1.129v3.553H6.337v-3.66q0-1.123.573-1.783c.395-.44.911-.666 1.553-.666.742 0 1.304.286 1.676.856l.361.606.361-.606c.372-.57.934-.856 1.676-.856.642 0 1.158.226 1.553.666q.574.66.573 1.782z"/></svg>
